assets/icons/USD_Logo_n.svg

<?xml version="1.0" encoding="UTF-8"?>
<!DOCTYPE svg  PUBLIC '-//W3C//DTD SVG 1.1//EN'  'http://www.w3.org/Graphics/SVG/1.1/DTD/svg11.dtd'>
<svg clip-rule="evenodd" fill-rule="evenodd" stroke-linecap="round" stroke-linejoin="round" version="1.1" viewBox="0 0 1024 1024" xml:space="preserve" xmlns="http://www.w3.org/2000/svg" xmlns:vectornator="http://vectornator.io">
<g vectornator:layerName="Layer 1">
<path d="m237.44 354.67 293.94 101.68v326.68l-293.94-101.68v-326.68z" fill="#7dd3f7" stroke="#fff" stroke-linecap="round" stroke-linejoin="round" stroke-width=".5"/>
<path d="m76.124 119.58v685.26l616.65 213.3v-685.26l-616.65-213.29zm113.9 165.93 388.76 134.55v432.05l-388.76-134.45v-432.15z" fill="#2091d0" stroke="#fff" stroke-linecap="round" stroke-linejoin="round" stroke-width=".5"/>
<path d="m342.74 163.08 396.9 134.05v441.18l90.064 31.18v-541.18l-486.96-168.41v103.17" fill="#34c6f3" stroke="#fff" stroke-linecap="round" stroke-linejoin="round" stroke-width=".5"/>
<path d="m618.45 110.56c99.225 33.513 257.08 86.39 257.08 86.39v304.55l90.064 31.18v-404.54l-347.15-120.75v103.17" fill="#7dd3f7" stroke="#fff" stroke-linecap="round" stroke-linejoin="round" stroke-width=".5"/>
<g fill="#006fbd" opacity="0">
<path d="m242.48 771.8h36.985v107.06c0 11.974 1.418 20.718 4.254 26.232 4.411 9.769 14.022 14.653 28.832 14.653 14.731 0 24.302-4.884 28.714-14.653 2.836-5.514 4.254-14.258 4.254-26.232v-107.06h36.985v107.06c0 18.512-2.875 32.928-8.626 43.248-10.713 18.906-31.156 28.359-61.327 28.359s-50.653-9.453-61.445-28.359c-5.751-10.32-8.626-24.736-8.626-43.248v-107.06z" opacity="1"/>
<path d="m482.7 892.21c1.103 7.957 3.269 13.904 6.499 17.843 5.908 7.169 16.031 10.753 30.368 10.753 8.587 0 15.559-0.945 20.915-2.836 10.162-3.624 15.243-10.359 15.243-20.206 0-5.751-2.52-10.201-7.562-13.352-5.042-3.073-12.959-5.79-23.751-8.154l-18.434-4.135c-18.118-4.097-30.643-8.548-37.576-13.353-11.737-8.035-17.606-20.6-17.606-37.694 0-15.598 5.672-28.557 17.015-38.876 11.344-10.32 28.005-15.48 49.984-15.48 18.355 0 34.011 4.865 46.97 14.593 12.959 9.729 19.753 23.85 20.383 42.362h-34.976c-0.63-10.477-5.199-17.921-13.707-22.333-5.672-2.914-12.723-4.372-21.152-4.372-9.374 0-16.858 1.891-22.451 5.672s-8.389 9.059-8.389 15.834c0 6.223 2.757 10.871 8.271 13.943 3.545 2.049 11.107 4.451 22.688 7.208l30.013 7.208c13.156 3.151 23.082 7.366 29.778 12.644 10.398 8.193 15.597 20.048 15.597 35.567 0 15.913-6.085 29.128-18.256 39.644-12.171 10.517-29.364 15.775-51.579 15.775-22.687 0-40.53-5.179-53.528-15.538s-19.497-24.598-19.497-42.717h34.74z" opacity="1"/>
<path d="m692.21 802.05v113.67h33.558c17.174 0 29.148-8.468 35.922-25.405 3.703-9.296 5.554-20.364 5.554-33.204 0-17.725-2.777-31.333-8.331-40.826-5.553-9.493-16.602-14.239-33.145-14.239h-33.558zm66.644-26.469c12.211 4.018 22.097 11.384 29.66 22.097 6.065 8.666 10.201 18.04 12.407 28.123 2.205 10.084 3.308 19.694 3.308 28.832 0 23.16-4.647 42.776-13.943 58.846-12.604 21.663-32.062 32.495-58.373 32.495h-75.034v-174.17h75.034c10.792 0.158 19.773 1.418 26.941 3.781z" opacity="1"/>
</g>
</g>
</svg>

<?xml version="1.0" encoding="UTF-8" standalone="no"?> <!-- Created with Vectornator for iOS (http://vectornator.io/) --><!DOCTYPE svg PUBLIC "-//W3C//DTD SVG 1.1//EN" "http://www.w3.org/Graphics/SVG/1.1/DTD/svg11.dtd">
<svg style="fill-rule:evenodd;clip-rule:evenodd;stroke-linecap:round;stroke-linejoin:round;" xmlns:vectornator="http://vectornator.io" xmlns:xlink="http://www.w3.org/1999/xlink" xmlns="http://www.w3.org/2000/svg" xml:space="preserve" version="1.1" viewBox="0 0 1024 1024">
<metadata>
<vectornator:setting key="DisplayWhiteBackground" value="0"/>
<vectornator:setting key="RulersVisible" value="1"/>
<vectornator:setting key="SnapToEdges" value="0"/>
<vectornator:setting key="Units" value="Pixels"/>
<vectornator:setting key="DynamicGuides" value="0"/>
<vectornator:setting key="SnapToPoints" value="0"/>
<vectornator:setting key="CMYKEnabledKey" value="0"/>
<vectornator:setting key="SnapToGrid" value="0"/>
<vectornator:setting key="SnapToGuides" value="1"/>
<vectornator:setting key="ShowGrid" value="1"/>
<vectornator:setting key="GridSpacing" value="36"/>
</metadata>
<defs/>
<g id="Layer 1" vectornator:layerName="Layer 1">
<path stroke="#ffffff" stroke-width="0.5" d="M237.444+354.674L531.385+456.356L531.385+783.032L237.444+681.35L237.444+354.674Z" fill="#7dd3f7" stroke-linecap="round" opacity="1" stroke-linejoin="round"/>
<path stroke="#ffffff" stroke-width="0.5" d="M76.1242+119.584L76.1242+804.845L692.77+1018.14L692.77+332.878L76.1242+119.584ZM190.02+285.512L578.775+420.062L578.775+852.112L190.02+717.661L190.02+285.512Z" fill="#2091d0" stroke-linecap="round" opacity="1" stroke-linejoin="round"/>
<path stroke="#ffffff" stroke-width="0.5" d="M342.742+163.077L739.639+297.13L739.639+738.315L829.703+769.495L829.703+228.316L342.742+59.9053L342.742+163.077" fill="#34c6f3" stroke-linecap="round" opacity="1" stroke-linejoin="round"/>
<path stroke="#ffffff" stroke-width="0.5" d="M618.454+110.563C717.679+144.076+875.539+196.953+875.539+196.953L875.539+501.502L965.603+532.682L965.603+128.139L618.454+7.39133L618.454+110.563" fill="#7dd3f7" stroke-linecap="round" opacity="1" stroke-linejoin="round"/>
<g opacity="0">
<path d="M242.478+771.803L279.463+771.803L279.463+878.86C279.463+890.834+280.881+899.578+283.717+905.092C288.128+914.861+297.739+919.745+312.549+919.745C327.28+919.745+336.851+914.861+341.263+905.092C344.099+899.578+345.517+890.834+345.517+878.86L345.517+771.803L382.502+771.803L382.502+878.86C382.502+897.372+379.627+911.788+373.876+922.108C363.163+941.014+342.72+950.467+312.549+950.467C282.378+950.467+261.896+941.014+251.104+922.108C245.353+911.788+242.478+897.372+242.478+878.86L242.478+771.803Z" opacity="1" fill="#006fbd"/>
<path d="M482.703+892.212C483.806+900.169+485.972+906.116+489.202+910.055C495.11+917.224+505.233+920.808+519.57+920.808C528.157+920.808+535.129+919.863+540.485+917.972C550.647+914.348+555.728+907.613+555.728+897.766C555.728+892.015+553.208+887.565+548.166+884.414C543.124+881.341+535.207+878.624+524.415+876.26L505.981+872.125C487.863+868.028+475.338+863.577+468.405+858.772C456.668+850.737+450.799+838.172+450.799+821.078C450.799+805.48+456.471+792.521+467.814+782.202C479.158+771.882+495.819+766.722+517.798+766.722C536.153+766.722+551.809+771.587+564.768+781.315C577.727+791.044+584.521+805.165+585.151+823.677L550.175+823.677C549.545+813.2+544.976+805.756+536.468+801.344C530.796+798.43+523.745+796.972+515.316+796.972C505.942+796.972+498.458+798.863+492.865+802.644C487.272+806.425+484.476+811.703+484.476+818.478C484.476+824.701+487.233+829.349+492.747+832.421C496.292+834.47+503.854+836.872+515.435+839.629L545.448+846.837C558.604+849.988+568.53+854.203+575.226+859.481C585.624+867.674+590.823+879.529+590.823+895.048C590.823+910.961+584.738+924.176+572.567+934.692C560.396+945.209+543.203+950.467+520.988+950.467C498.301+950.467+480.458+945.288+467.46+934.929C454.462+924.57+447.963+910.331+447.963+892.212L482.703+892.212Z" opacity="1" fill="#006fbd"/>
<path d="M692.206+802.053L692.206+915.727L725.764+915.727C742.938+915.727+754.912+907.259+761.686+890.322C765.389+881.026+767.24+869.958+767.24+857.118C767.24+839.393+764.463+825.785+758.909+816.292C753.356+806.799+742.307+802.053+725.764+802.053L692.206+802.053ZM758.85+775.584C771.061+779.602+780.947+786.968+788.51+797.681C794.575+806.347+798.711+815.721+800.917+825.804C803.122+835.888+804.225+845.498+804.225+854.636C804.225+877.796+799.578+897.412+790.282+913.482C777.678+935.145+758.22+945.977+731.909+945.977L656.875+945.977L656.875+771.803L731.909+771.803C742.701+771.961+751.682+773.221+758.85+775.584Z" opacity="1" fill="#006fbd"/>
</g>
</g>
</svg>
